svgs/light/phone-flip.svg

<svg xmlns="http://www.w3.org/2000/svg" viewBox="0 0 512 512"><!--! Font Awesome Pro 6.3.0 by @fontawesome - https://fontawesome.com License - https://fontawesome.com/license (Commercial License) Copyright 2023 Fonticons, Inc. --><path d="M1.153 382.4l21.8 94.47C27.72 497.6 45.89 512 67.12 512C312.4 512 512 312.4 512 67.12c0-21.22-14.47-39.34-35.17-44.06l-94.39-21.91c-21.2-4.891-43.09 6.125-51.81 26.22L287 129.2c-7.984 18.69-2.828 39.92 12.84 52.84l40.52 33.19c-28.7 52.73-72.56 96.59-125.3 125.3L181.9 300C169.4 284.6 147.7 279.3 129.2 286.1L27.4 330.6c-.0156 .0313 .0156 0 0 0C7.317 339.3-3.738 361.1 1.153 382.4zM32.34 375.2c-1.438-6.25 1.813-12.66 7.719-15.22l101.6-43.56c5.344-2.219 11.8-.7188 15.5 3.844l41.39 50.5c4.703 5.75 12.8 7.531 19.44 4.219c67.83-33.38 123.6-89.09 156.9-156.9c3.281-6.672 1.531-14.72-4.219-19.44L320.2 157.3c-4.578-3.781-6.109-10.03-3.75-15.55l43.58-101.7c2.141-4.938 7.016-8.031 12.25-8.031c.9844 0 1.984 .1094 2.984 .3438l94.41 21.91c6.109 1.391 10.34 6.688 10.34 12.88c0 227.7-185.2 412.9-412.9 412.9c-6.141 0-11.61-4.344-12.98-10.31L32.34 375.2z"/></svg>

<svg xmlns="http://www.w3.org/2000/svg" viewBox="0 0 512 512"><!-- Font Awesome Pro 6.0.0-alpha2 by @fontawesome - https://fontawesome.com License - https://fontawesome.com/license (Commercial License) --><path d="M1.153 382.406L22.95 476.875C27.716 497.562 45.888 512 67.122 512C312.436 512 512 312.437 512 67.123C512 45.904 497.531 27.779 476.828 23.06L382.437 1.154C361.233 -3.737 339.343 7.279 330.624 27.373L287.014 129.154C279.03 147.842 284.186 169.077 299.858 181.998L340.374 215.186C311.671 267.921 267.811 311.78 215.061 340.499L181.92 300.03C169.373 284.577 147.669 279.265 129.169 286.952L27.419 330.593C27.403 330.624 27.387 330.624 27.372 330.624C7.294 339.312 -3.738 361.093 1.153 382.406ZM32.341 375.218C30.903 368.968 34.153 362.562 40.059 359.999L141.638 316.437C146.982 314.218 153.435 315.718 157.138 320.28L198.529 370.781C203.232 376.531 211.326 378.312 217.967 374.999C285.795 341.624 341.53 285.905 374.905 218.092C378.187 211.421 376.437 203.374 370.687 198.655L320.186 157.28C315.608 153.498 314.077 147.248 316.436 141.733L360.015 40.029C362.155 35.092 367.03 31.998 372.265 31.998C373.249 31.998 374.249 32.107 375.249 32.342L469.656 54.248C475.765 55.639 480 60.935 480 67.123C480 294.78 294.78 480 67.122 480C60.981 480 55.513 475.656 54.138 469.687L32.341 375.218Z"/></svg>
